modules/hawcons-stroke/icons/icon-137-document-certificate.svg

<?xml version="1.0" encoding="UTF-8" standalone="no"?>
<svg width="32px" height="32px" viewBox="0 0 32 32" version="1.1" xmlns="http://www.w3.org/2000/svg" xmlns:xlink="http://www.w3.org/1999/xlink" xmlns:sketch="http://www.bohemiancoding.com/sketch/ns">
    <!-- Generator: Sketch 3.0.3 (7891) - http://www.bohemiancoding.com/sketch -->
    <title>icon 137 document certificate</title>
    <desc>Created with Sketch.</desc>
    <defs></defs>
    <g id="Page-1" stroke="none" stroke-width="1" fill="none" fill-rule="evenodd" sketch:type="MSPage">
        <g id="icon-137-document-certificate" sketch:type="MSArtboardGroup" fill="#929292">
            <path d="M22,24.9494914 L22,26 L24.0000398,26 C24.5523026,26 25,25.5550537 25,25.0066023 L25,8 L20.9979131,8 C19.8944962,8 19,7.11344516 19,5.99408095 L19,1 L8.9955775,1 C8.44573523,1 8,1.45526288 8,1.99545703 L8,25.004543 C8,25.5543187 8.45470893,26 8.9999602,26 L17,26 L17,26 L17,24.9494914 C16.3814065,24.3182229 16,23.4536526 16,22.5 C16,20.5670033 17.5670033,19 19.5,19 C21.4329967,19 23,20.5670033 23,22.5 C23,23.4536526 22.6185935,24.3182229 22,24.9494914 L22,24.9494914 L22,24.9494914 Z M18,25.6631845 L18,29.5999756 L19.5,28.1000061 L21,29.5999756 L21,25.6631845 C20.5453723,25.8791545 20.0367987,26 19.5,26 C18.9632013,26 18.4546277,25.8791545 18,25.6631845 L18,25.6631845 L18,25.6631845 Z M22,27 L24.0025781,27 C25.1057238,27 26,26.1017876 26,25.0092049 L26,7 L26,7 L20,0 L9.00276013,0 C7.89666625,0 7,0.898338318 7,2.00732994 L7,24.9926701 C7,26.1012878 7.89092539,27 8.99742191,27 L17,27 L17,32 L19.5,29.5 L22,32 L22,27 L22,27 L22,27 Z M20,1.5 L20,5.99121523 C20,6.54835167 20.4506511,7 20.9967388,7 L24.6999512,7 L20,1.5 L20,1.5 Z M10,7 L10,8 L17,8 L17,7 L10,7 L10,7 Z M10,4 L10,5 L17,5 L17,4 L10,4 L10,4 Z M10,10 L10,11 L23,11 L23,10 L10,10 L10,10 Z M10,13 L10,14 L23,14 L23,13 L10,13 L10,13 Z M10,16 L10,17 L23,17 L23,16 L10,16 L10,16 Z M19.5,25 C20.8807119,25 22,23.8807119 22,22.5 C22,21.1192881 20.8807119,20 19.5,20 C18.1192881,20 17,21.1192881 17,22.5 C17,23.8807119 18.1192881,25 19.5,25 L19.5,25 Z" id="document-certificate" sketch:type="MSShapeGroup"></path>
        </g>
    </g>
</svg>

<svg width="32" height="32" viewBox="0 0 32 32" xmlns="http://www.w3.org/2000/svg"><path d="M22 24.95V26h2c.552 0 1-.445 1-.993V8h-4.002A1.995 1.995 0 0 1 19 5.994V1H8.996C8.446 1 8 1.455 8 1.995v23.01c0 .55.455.995 1 .995h8v-1.05a3.5 3.5 0 1 1 5 0zm-4 .713V29.6l1.5-1.5 1.5 1.5v-3.937a3.486 3.486 0 0 1-1.5.337c-.537 0-1.045-.12-1.5-.337zM22 27h2.003A1.999 1.999 0 0 0 26 25.01V7l-6-7H9.003A2.005 2.005 0 0 0 7 2.007v22.986A2 2 0 0 0 8.997 27H17v5l2.5-2.5L22 32v-5zM20 1.5v4.491c0 .557.45 1.009.997 1.009H24.7L20 1.5zM10 7v1h7V7h-7zm0-3v1h7V4h-7zm0 6v1h13v-1H10zm0 3v1h13v-1H10zm0 3v1h13v-1H10zm9.5 9a2.5 2.5 0 1 0 0-5 2.5 2.5 0 0 0 0 5z" fill="#929292" fill-rule="evenodd"/></svg>
